modules/hawcons-stroke/icons/icon-49-face-closed-eyes-open-mouth.svg

<?xml version="1.0" encoding="UTF-8" standalone="no"?>
<svg width="32px" height="32px" viewBox="0 0 32 32" version="1.1" xmlns="http://www.w3.org/2000/svg" xmlns:xlink="http://www.w3.org/1999/xlink" xmlns:sketch="http://www.bohemiancoding.com/sketch/ns">
    <!-- Generator: Sketch 3.0.3 (7891) - http://www.bohemiancoding.com/sketch -->
    <title>icon 49 face closed eyes open mouth</title>
    <desc>Created with Sketch.</desc>
    <defs></defs>
    <g id="Page-1" stroke="none" stroke-width="1" fill="none" fill-rule="evenodd" sketch:type="MSPage">
        <g id="icon-49-face-closed-eyes-open-mouth" sketch:type="MSArtboardGroup" fill="#929292">
            <path d="M16.5,29 C23.4035597,29 29,23.4035597 29,16.5 C29,9.59644029 23.4035597,4 16.5,4 C9.59644029,4 4,9.59644029 4,16.5 C4,23.4035597 9.59644029,29 16.5,29 L16.5,29 Z M16.5,28 C22.8512749,28 28,22.8512749 28,16.5 C28,10.1487251 22.8512749,5 16.5,5 C10.1487251,5 5,10.1487251 5,16.5 C5,22.8512749 10.1487251,28 16.5,28 L16.5,28 Z M16.5,24 C17.8807119,24 19,22.8807119 19,21.5 C19,20.1192881 17.8807119,19 16.5,19 C15.1192881,19 14,20.1192881 14,21.5 C14,22.8807119 15.1192881,24 16.5,24 L16.5,24 Z M16.5,23 C17.3284272,23 18,22.3284272 18,21.5 C18,20.6715728 17.3284272,20 16.5,20 C15.6715728,20 15,20.6715728 15,21.5 C15,22.3284272 15.6715728,23 16.5,23 L16.5,23 Z M19.6215213,10.9670954 L19.0623284,11.796133 L22.3784787,14.0329046 L22.9376716,13.203867 L19.6215213,10.9670954 L19.6215213,10.9670954 Z M10.0623284,13.203867 L10.6215213,14.0329046 L13.9376716,11.796133 L13.3784787,10.9670954 L10.0623284,13.203867 L10.0623284,13.203867 Z" id="face-closed-eyes-open-mouth" sketch:type="MSShapeGroup"></path>
        </g>
    </g>
</svg>

<svg width="32" height="32" viewBox="0 0 32 32" xmlns="http://www.w3.org/2000/svg"><path d="M16.5 29C23.404 29 29 23.404 29 16.5S23.404 4 16.5 4 4 9.596 4 16.5 9.596 29 16.5 29zm0-1C22.851 28 28 22.851 28 16.5S22.851 5 16.5 5 5 10.149 5 16.5 10.149 28 16.5 28zm0-4a2.5 2.5 0 1 0 0-5 2.5 2.5 0 0 0 0 5zm0-1a1.5 1.5 0 1 0 0-3 1.5 1.5 0 0 0 0 3zm3.122-12.033l-.56.83 3.316 2.236.56-.83-3.316-2.236zm-9.56 2.237l.56.829 3.316-2.237-.56-.829-3.316 2.237z" fill="#929292" fill-rule="evenodd"/></svg>
